packages/gamut-icons/src/list.svg

<?xml version="1.0" encoding="utf-8"?>
<!-- Generated by IcoMoon.io -->
<!DOCTYPE svg PUBLIC "-//W3C//DTD SVG 1.1//EN" "http://www.w3.org/Graphics/SVG/1.1/DTD/svg11.dtd">
<svg version="1.1" xmlns="http://www.w3.org/2000/svg" xmlns:xlink="http://www.w3.org/1999/xlink" width="32" height="32" viewBox="0 0 32 32">
<path fill="#444" d="M4 8h2v2h-2v-2z"></path>
<path fill="#444" d="M10 8h17.8v2h-17.8v-2z"></path>
<path fill="#444" d="M4 16h2v2h-2v-2z"></path>
<path fill="#444" d="M10 16h18v2h-18v-2z"></path>
<path fill="#444" d="M4 24h2v2h-2v-2z"></path>
<path fill="#444" d="M10 24h18v2h-18v-2z"></path>
</svg>

<svg xmlns="http://www.w3.org/2000/svg" viewBox="0 0 32 32">
    <path fill="#444" d="M4 8h2v2H4V8zm6 0h17.8v2H10V8zm-6 8h2v2H4v-2zm6 0h18v2H10v-2zm-6 8h2v2H4v-2zm6 0h18v2H10v-2z"/>
</svg>
